packages/ui-solid/icons/app_28.svg

<svg width="28" height="28" viewBox="0 0 28 28" fill="none" xmlns="http://www.w3.org/2000/svg">
<path d="M15 4.95C15 4.42533 14.5746 3.99962 14.0499 4.00056C11.0699 4.00592 8.43744 4.06221 7.27606 4.65396C6.14708 5.2292 5.2292 6.14708 4.65396 7.27606C4 8.55953 4 10.2397 4 13.6V14.4C4 17.7603 4 19.4405 4.65396 20.7239C5.2292 21.8529 6.14708 22.7708 7.27606 23.346C8.55953 24 10.2397 24 13.6 24H14.4C17.7603 24 19.4405 24 20.7239 23.346C21.8529 22.7708 22.7708 21.8529 23.346 20.7239C23.9378 19.5626 23.9941 16.9301 23.9994 13.9501C24.0004 13.4254 23.5747 13 23.05 13C22.5253 13 22.1002 13.425 22.0995 13.9497C22.0973 15.5487 22.0858 17.4371 22.0246 18.1861C21.9524 19.0691 21.8209 19.5321 21.6531 19.8614C21.26 20.6328 20.6328 21.26 19.8614 21.6531C19.5321 21.8209 19.0691 21.9524 18.1861 22.0246C17.2809 22.0985 16.1115 22.1 14.4 22.1H13.6C11.8885 22.1 10.7191 22.0985 9.81393 22.0246C8.93092 21.9524 8.46789 21.8209 8.13864 21.6531C7.36717 21.26 6.73995 20.6328 6.34687 19.8614C6.17911 19.5321 6.04758 19.0691 5.97544 18.1861C5.90148 17.2809 5.9 16.1115 5.9 14.4V13.6C5.9 11.8885 5.90148 10.7191 5.97544 9.81393C6.04758 8.93092 6.17911 8.46789 6.34687 8.13864C6.73995 7.36717 7.36717 6.73995 8.13864 6.34687C8.46789 6.17911 8.93092 6.04758 9.81393 5.97544C10.5629 5.91424 12.4513 5.90267 14.0503 5.9005C14.575 5.89978 15 5.47467 15 4.95Z" fill="#007AFF"/>
<path d="M24 7C24 8.65685 22.6569 10 21 10C19.3431 10 18 8.65685 18 7C18 5.34315 19.3431 4 21 4C22.6569 4 24 5.34315 24 7Z" fill="#007AFF"/>
</svg>

<svg xmlns="http://www.w3.org/2000/svg" width="28" height="28" fill="none"><path fill="currentColor" d="M15 4.95a.95.95 0 0 0-.95-.95c-2.98.006-5.613.062-6.774.654a6 6 0 0 0-2.622 2.622C4 8.56 4 10.24 4 13.6v.8c0 3.36 0 5.04.654 6.324a6 6 0 0 0 2.622 2.622C8.56 24 10.24 24 13.6 24h.8c3.36 0 5.04 0 6.324-.654a6 6 0 0 0 2.622-2.622c.592-1.161.648-3.794.653-6.774a.949.949 0 1 0-1.9 0c-.002 1.599-.013 3.487-.074 4.236-.073.883-.204 1.346-.372 1.675a4.1 4.1 0 0 1-1.792 1.792c-.329.168-.792.3-1.675.372-.905.074-2.075.075-3.786.075h-.8c-1.711 0-2.88-.002-3.786-.075-.883-.073-1.346-.204-1.675-.372a4.1 4.1 0 0 1-1.792-1.792c-.168-.329-.3-.792-.372-1.675-.074-.905-.075-2.075-.075-3.786v-.8c0-1.711.001-2.88.075-3.786.073-.883.204-1.346.372-1.675a4.1 4.1 0 0 1 1.792-1.792c.329-.168.792-.3 1.675-.372.749-.06 2.637-.072 4.236-.074A.95.95 0 0 0 15 4.95"/><path fill="currentColor" d="M24 7a3 3 0 1 1-6 0 3 3 0 0 1 6 0"/></svg>
